X: 7
T:Star above the Garter, The
M:12/8
L:1/8
R:Slide
K:DMix
d2B BAG A3 ABA|G2E c2B BAG ABc|!
d2B BAG A3 ABA|G2E c2E DED D3||!
d2B BAG A3 ABA|G2E c2B BAG ABc|!
d2B BAG A3 ABA|G2E c2E DED D3|]!
d2e f2a g2e d2B|G2B c2B BAG ABc|!
d2e f2a g2e d2B|G2B c2E DED D3||!
d2e f2a g2e d2B|G2B c2B BAG ABc|!
d2e f2a g2e d2B|G2B c2E DED D3|]!
